dist/assets/img/social/pinterest.svg

<svg width="23" height="27" viewBox="0 0 23 27" fill="none" xmlns="http://www.w3.org/2000/svg">
<path d="M11.8668 0C4.46538 0.001125 0.53125 4.743 0.53125 9.9135C0.53125 12.3109 1.87113 15.3022 4.0165 16.2506C4.6285 16.5262 4.5475 16.1899 5.074 14.1761C5.11562 14.0085 5.09425 13.8634 4.95925 13.707C1.8925 10.1599 4.36075 2.86762 11.4291 2.86762C21.6588 2.86762 19.7474 17.0224 13.2089 17.0224C11.5236 17.0224 10.2681 15.6994 10.6653 14.0625C11.1468 12.1129 12.0895 10.017 12.0895 8.61188C12.0895 5.07038 6.81325 5.59575 6.81325 10.2881C6.81325 11.7383 7.32625 12.717 7.32625 12.717C7.32625 12.717 5.62862 19.575 5.31362 20.8564C4.78038 23.0254 5.38562 26.5365 5.4385 26.8391C5.47113 27.0056 5.65788 27.0585 5.7625 26.9212C5.93013 26.7019 7.98212 23.7746 8.557 21.6585C8.76625 20.8879 9.62463 17.7604 9.62463 17.7604C10.1905 18.7819 11.8218 19.6369 13.5599 19.6369C18.7304 19.6369 22.4676 15.0919 22.4676 9.45225C22.4496 4.0455 17.8225 0 11.8668 0V0Z" fill="#656565"/>
</svg>

<svg width="23" height="27" viewBox="0 0 23 27" fill="none" xmlns="http://www.w3.org/2000/svg"><path d="M11.867 0C4.465.001.53 4.743.53 9.914c0 2.397 1.34 5.388 3.485 6.337.612.275.532-.061 1.058-2.075a.478.478 0 00-.115-.469c-3.066-3.547-.598-10.84 6.47-10.84 10.23 0 8.318 14.155 1.78 14.155-1.685 0-2.94-1.323-2.544-2.96.482-1.95 1.425-4.045 1.425-5.45 0-3.542-5.277-3.016-5.277 1.676 0 1.45.513 2.429.513 2.429s-1.697 6.858-2.012 8.14c-.534 2.168.072 5.68.125 5.982.032.167.219.22.324.082.167-.22 2.22-3.146 2.794-5.262.21-.771 1.068-3.899 1.068-3.899.566 1.022 2.197 1.877 3.935 1.877 5.17 0 8.908-4.545 8.908-10.185C22.45 4.045 17.823 0 11.867 0z" fill="#656565"/></svg>
